Numix-Light/16/status/indicator-keyboard-Kk-2.svg

<?xml version="1.0" encoding="UTF-8" standalone="no"?>
<svg
   xmlns:dc="http://purl.org/dc/elements/1.1/"
   xmlns:cc="http://creativecommons.org/ns#"
   xmlns:rdf="http://www.w3.org/1999/02/22-rdf-syntax-ns#"
   xmlns:svg="http://www.w3.org/2000/svg"
   xmlns="http://www.w3.org/2000/svg"
   xmlns:sodipodi="http://sodipodi.sourceforge.net/DTD/sodipodi-0.dtd"
   xmlns:inkscape="http://www.inkscape.org/namespaces/inkscape"
   viewBox="0 0 16 16"
   id="svg2"
   version="1.1"
   inkscape:version="0.91 r13725"
   sodipodi:docname="indicator-keyboard-Kk-2.svg">
  <metadata
     id="metadata14">
    <rdf:RDF>
      <cc:Work
         rdf:about="">
        <dc:format>image/svg+xml</dc:format>
        <dc:type
           rdf:resource="http://purl.org/dc/dcmitype/StillImage" />
      </cc:Work>
    </rdf:RDF>
  </metadata>
  <defs
     id="defs12" />
  <sodipodi:namedview
     pagecolor="#ffffff"
     bordercolor="#666666"
     borderopacity="1"
     objecttolerance="10"
     gridtolerance="10"
     guidetolerance="10"
     inkscape:pageopacity="0"
     inkscape:pageshadow="2"
     inkscape:window-width="640"
     inkscape:window-height="480"
     id="namedview10"
     showgrid="false"
     inkscape:zoom="14.75"
     inkscape:cx="8"
     inkscape:cy="8"
     inkscape:window-x="65"
     inkscape:window-y="24"
     inkscape:window-maximized="0"
     inkscape:current-layer="svg2" />
  <path
     style="fill:#353535;fill-opacity:1"
     d="M 1.5996094 0 C 0.71320937 2.9605947e-16 0 0.71320937 0 1.5996094 L 0 14.400391 C 2.9605947e-16 15.286791 0.71320937 16 1.5996094 16 L 14.400391 16 C 15.286791 16 16 15.286791 16 14.400391 L 16 1.5996094 C 16 0.71320937 15.286791 0 14.400391 0 L 1.5996094 0 z M 8.0253906 4.1113281 L 8.0253906 8.5390625 C 8.1753906 8.3950625 8.3432969 8.2309219 8.5292969 8.0449219 C 8.7152969 7.8589219 8.8999375 7.6705156 9.0859375 7.4785156 C 9.2779375 7.2865156 9.4589531 7.0999219 9.6269531 6.9199219 C 9.7949531 6.7399219 9.938594 6.5813594 10.058594 6.4433594 L 10.759766 6.4433594 C 10.621766 6.5873594 10.466969 6.7496875 10.292969 6.9296875 C 10.118969 7.1096875 9.9361404 7.2980938 9.7441406 7.4960938 C 9.5581406 7.6880937 9.3715469 7.8765 9.1855469 8.0625 L 8.6816406 8.5664062 C 8.8676406 8.6924063 9.0653906 8.8547344 9.2753906 9.0527344 C 9.4913906 9.2507344 9.70225 9.4671719 9.90625 9.7011719 C 10.11625 9.9291721 10.310234 10.166109 10.490234 10.412109 C 10.676234 10.652109 10.832984 10.879703 10.958984 11.095703 L 10.265625 11.095703 C 10.121625 10.855703 9.9574841 10.622531 9.7714844 10.394531 C 9.5914844 10.160531 9.3993125 9.9403283 9.1953125 9.7363281 C 8.9973125 9.5323281 8.7957969 9.3476875 8.5917969 9.1796875 C 8.3937969 9.0116875 8.2053906 8.8698594 8.0253906 8.7558594 L 8.0253906 11.095703 L 7.4394531 11.095703 L 7.4394531 4.2207031 L 8.0253906 4.1113281 z M 2.0800781 4.859375 L 2.6914062 4.859375 L 2.6914062 7.765625 C 2.9194063 7.561625 3.1712656 7.3284531 3.4472656 7.0644531 C 3.7292656 6.7944531 4.0053906 6.5239062 4.2753906 6.2539062 C 4.5513906 5.9839063 4.8088281 5.7264687 5.0488281 5.4804688 C 5.2888281 5.2344688 5.481 5.027375 5.625 4.859375 L 6.3632812 4.859375 C 6.1892812 5.045375 5.9784219 5.2673906 5.7324219 5.5253906 C 5.4864219 5.7773906 5.2252188 6.0385937 4.9492188 6.3085938 C 4.6732187 6.5785938 4.3990469 6.845375 4.1230469 7.109375 C 3.8530469 7.367375 3.6085781 7.5949688 3.3925781 7.7929688 C 3.5665781 7.9009687 3.7531719 8.0352656 3.9511719 8.1972656 C 4.1551719 8.3532656 4.3585 8.5287031 4.5625 8.7207031 C 4.7725 8.9067031 4.9777813 9.1044531 5.1757812 9.3144531 C 5.3797813 9.5184531 5.5681875 9.7255469 5.7421875 9.9355469 C 5.9221875 10.145547 6.08075 10.348875 6.21875 10.546875 C 6.36275 10.744875 6.4803125 10.927703 6.5703125 11.095703 L 5.8867188 11.095703 C 5.6827188 10.783703 5.4513594 10.475922 5.1933594 10.169922 C 4.9413594 9.8639217 4.6745781 9.5746875 4.3925781 9.3046875 C 4.1105781 9.0346875 3.8213437 8.7884062 3.5273438 8.5664062 C 3.2393438 8.3444063 2.9614062 8.1597656 2.6914062 8.0097656 L 2.6914062 11.095703 L 2.0800781 11.095703 L 2.0800781 4.859375 z M 12.59375 8.7539062 C 12.98765 8.7539062 13.283522 8.851875 13.482422 9.046875 C 13.681322 9.237975 13.78125 9.5044563 13.78125 9.8476562 C 13.78125 9.9997563 13.753819 10.14475 13.699219 10.28125 C 13.644619 10.41385 13.570163 10.543169 13.476562 10.667969 C 13.386863 10.792769 13.283016 10.912297 13.166016 11.029297 C 13.049016 11.146297 12.929494 11.263859 12.808594 11.380859 C 12.707194 11.478359 12.609219 11.578288 12.511719 11.679688 C 12.418119 11.777188 12.331906 11.877116 12.253906 11.978516 C 12.179806 12.076016 12.119066 12.172031 12.072266 12.269531 C 12.029366 12.363131 12.007813 12.457181 12.007812 12.550781 L 12.007812 12.5625 L 13.919922 12.5625 L 13.919922 12.896484 L 11.585938 12.896484 C 11.585938 12.888684 11.583945 12.874969 11.580078 12.855469 L 11.580078 12.755859 C 11.580078 12.572559 11.613387 12.402094 11.679688 12.246094 C 11.745988 12.086194 11.830241 11.937275 11.931641 11.796875 C 12.036941 11.656475 12.152544 11.525197 12.277344 11.404297 C 12.406044 11.283397 12.529484 11.165834 12.646484 11.052734 C 12.743984 10.959134 12.834122 10.869003 12.919922 10.783203 C 13.009622 10.693503 13.087997 10.603366 13.154297 10.509766 C 13.220597 10.416166 13.2735 10.316237 13.3125 10.210938 C 13.3515 10.105638 13.371094 9.9900344 13.371094 9.8652344 C 13.371094 9.5922344 13.296638 9.39825 13.148438 9.28125 C 13.004137 9.16035 12.821909 9.0996094 12.599609 9.0996094 C 12.474809 9.0996094 12.363125 9.1152844 12.265625 9.1464844 C 12.168125 9.1776844 12.081912 9.2149125 12.007812 9.2578125 C 11.937612 9.2968125 11.876872 9.3379594 11.826172 9.3808594 C 11.775472 9.4237594 11.738244 9.4570688 11.714844 9.4804688 L 11.515625 9.2167969 C 11.539025 9.1894969 11.580172 9.1503094 11.638672 9.0996094 C 11.701072 9.0450094 11.777487 8.9921062 11.867188 8.9414062 C 11.960788 8.8907063 12.068553 8.8476 12.189453 8.8125 C 12.310353 8.7735 12.44555 8.7539063 12.59375 8.7539062 z "
     id="path4" />
</svg>

<svg xmlns="http://www.w3.org/2000/svg" viewBox="0 0 16 16">
 <path d="m 1.6 0 c -0.886 0 -1.6 0.713 -1.6 1.6 l 0 12.801 c 0 0.886 0.713 1.6 1.6 1.6 l 12.801 0 c 0.886 0 1.6 -0.713 1.6 -1.6 l 0 -12.801 c 0 -0.886 -0.713 -1.6 -1.6 -1.6 l -12.801 0 z m 6.426 4.111 l 0 4.428 c 0.15 -0.144 0.318 -0.308 0.504 -0.494 c 0.186 -0.186 0.371 -0.374 0.557 -0.566 c 0.192 -0.192 0.373 -0.379 0.541 -0.559 c 0.168 -0.18 0.312 -0.339 0.432 -0.477 l 0.701 0 c -0.138 0.144 -0.293 0.306 -0.467 0.486 c -0.174 0.18 -0.357 0.368 -0.549 0.566 c -0.186 0.192 -0.373 0.38 -0.559 0.566 l -0.504 0.504 c 0.186 0.126 0.384 0.288 0.594 0.486 c 0.216 0.198 0.427 0.414 0.631 0.648 c 0.21 0.228 0.404 0.465 0.584 0.711 c 0.186 0.24 0.343 0.468 0.469 0.684 l -0.693 0 c -0.144 -0.24 -0.308 -0.473 -0.494 -0.701 c -0.18 -0.234 -0.372 -0.454 -0.576 -0.658 c -0.198 -0.204 -0.4 -0.389 -0.604 -0.557 c -0.198 -0.168 -0.386 -0.31 -0.566 -0.424 l 0 2.34 l -0.586 0 l 0 -6.875 l 0.586 -0.109 z m -5.945 0.748 l 0.611 0 l 0 2.906 c 0.228 -0.204 0.48 -0.437 0.756 -0.701 c 0.282 -0.27 0.558 -0.541 0.828 -0.811 c 0.276 -0.27 0.533 -0.527 0.773 -0.773 c 0.24 -0.246 0.432 -0.453 0.576 -0.621 l 0.738 0 c -0.174 0.186 -0.385 0.408 -0.631 0.666 c -0.246 0.252 -0.507 0.513 -0.783 0.783 c -0.276 0.27 -0.55 0.537 -0.826 0.801 c -0.27 0.258 -0.514 0.486 -0.73 0.684 c 0.174 0.108 0.361 0.242 0.559 0.404 c 0.204 0.156 0.407 0.331 0.611 0.523 c 0.21 0.186 0.415 0.384 0.613 0.594 c 0.204 0.204 0.392 0.411 0.566 0.621 c 0.18 0.21 0.339 0.413 0.477 0.611 c 0.144 0.198 0.262 0.381 0.352 0.549 l -0.684 0 c -0.204 -0.312 -0.435 -0.62 -0.693 -0.926 c -0.252 -0.306 -0.519 -0.595 -0.801 -0.865 c -0.282 -0.27 -0.571 -0.516 -0.865 -0.738 c -0.288 -0.222 -0.566 -0.407 -0.836 -0.557 l 0 3.086 l -0.611 0 l 0 -6.236 z m 10.514 3.895 c 0.394 0 0.69 0.098 0.889 0.293 c 0.199 0.191 0.299 0.458 0.299 0.801 c 0 0.152 -0.027 0.297 -0.082 0.434 c -0.055 0.133 -0.129 0.262 -0.223 0.387 c -0.09 0.125 -0.194 0.244 -0.311 0.361 c -0.117 0.117 -0.237 0.235 -0.357 0.352 c -0.101 0.098 -0.199 0.197 -0.297 0.299 c -0.094 0.098 -0.18 0.197 -0.258 0.299 c -0.074 0.097 -0.135 0.194 -0.182 0.291 c -0.043 0.094 -0.064 0.188 -0.064 0.281 l 0 0.012 l 1.912 0 l 0 0.334 l -2.334 0 c 0 -0.008 -0.002 -0.022 -0.006 -0.041 l 0 -0.1 c 0 -0.183 0.033 -0.354 0.1 -0.51 c 0.066 -0.16 0.151 -0.309 0.252 -0.449 c 0.105 -0.14 0.221 -0.272 0.346 -0.393 c 0.129 -0.121 0.252 -0.238 0.369 -0.352 c 0.098 -0.094 0.188 -0.184 0.273 -0.27 c 0.09 -0.09 0.168 -0.18 0.234 -0.273 c 0.066 -0.094 0.119 -0.194 0.158 -0.299 c 0.039 -0.105 0.059 -0.221 0.059 -0.346 c 0 -0.273 -0.074 -0.467 -0.223 -0.584 c -0.144 -0.121 -0.327 -0.182 -0.549 -0.182 c -0.125 0 -0.236 0.016 -0.334 0.047 c -0.098 0.031 -0.184 0.068 -0.258 0.111 c -0.07 0.039 -0.131 0.08 -0.182 0.123 c -0.051 0.043 -0.088 0.076 -0.111 0.1 l -0.199 -0.264 c 0.023 -0.027 0.065 -0.066 0.123 -0.117 c 0.062 -0.055 0.139 -0.108 0.229 -0.158 c 0.094 -0.051 0.201 -0.094 0.322 -0.129 c 0.121 -0.039 0.256 -0.059 0.404 -0.059 z" style="fill:#353535;fill-opacity:1"/>
</svg>
